X:304
T: Wo yiren kanle yi tai xi
N: C0817A
O: China,Shanxi
S: MM,]
N: Textbeilage kopiert.  Fortsetzung der Platte auf Band 20
N: +++Dieses Lied ist GETEILT! Der zweite Teil ist im folgenden Dokument
N: unter gleicher Signatur B kodiert.
R: Xiaodiao, Erge]
M: 2/4
L: 1/16
K: F
F4G3c | F2GFC2C2 | F4G3d | c2dcG2E2 |
c2GcG2F2 | GFC4C2 | D4G,4 | F2DCC2C2 |
F2CFGcF2 | G8 | c4d4 | cGc6- | c8 |
c2GcGAGF | GFC2F4 | F2EFGcFG | C8 |
F2DCDCG,2 | C2C6 |
F4G3c | F2GFC2C2 | F4G3d | c2dcG2E2 |
c2GcG2F2 | GFC4C2 | D4G,4 | F2DCC2C2 |
F2CFGcF2 | G8 | c4d4 | cGc6- | c8 |
c2GcGAGF | GFC2F4 | F2EFGcFG | C8 |
z4z4 | d2dcdcG2 | c2c6 |
c3cB2c2 | d4dcG2 | c8- | c8

@@@ Tune index: 6305
